X: 24935
T: Maid Behind The Bar, The
R: reel
M: 4/4
K: Dmajor
DE|:FAAB AFED|FAAB A2 de|fBBA Bcde|fdgf edBA|
FAAB AFED|FAAB A2 de|fBBA BcdB|1 AFEF D2DE:|2 AFEF D3z||
|:fgag fdde|fdad fddf|efga beef|(3gfe be geea|
fgaf b2af|defd efde|fBBA BcdB|AFEF D3z:|

